dist/img/advantages/img-03.svg

<svg width="81" height="81" viewBox="0 0 81 81" fill="none" xmlns="http://www.w3.org/2000/svg">
<rect width="80" height="80" transform="translate(0.5 0.515625)" fill="white"/>
<path d="M54.485 61.0478C54.485 61.0478 63.8673 54.7773 65.9695 43.5606C68.0718 32.3439 64.6459 24.2429 61.804 23.464C58.9231 22.685 53.2003 25.8008 51.0981 24.7882C48.9958 23.7366 47.6333 19.2188 40.3144 19.2188C32.9954 19.2188 28.4017 29.8902 26.0269 30.8639C23.6911 31.8376 15.2042 27.7871 14.4646 30.8639C13.8417 33.5512 15.9828 51.2721 27.4673 56.9194C29.7253 58.0489 32.4894 57.1141 33.6183 54.8552C34.5916 52.9079 36.4602 50.8826 39.925 50.8826C46.66 50.8047 38.835 67.0456 54.485 61.0478Z" fill="#F8BE37"/>
<path d="M51.0951 24.7491C48.9928 23.6975 47.6302 19.1797 40.3113 19.1797C32.9924 19.1797 28.3986 29.8512 26.0239 30.8248C25.5178 31.0196 24.7781 31.0196 23.8438 30.9027C24.817 31.0585 28.4765 31.9543 32.4084 36.1995C36.9633 41.1458 39.3381 45.7805 45.9562 43.95C55.6888 41.2626 45.3334 28.6827 52.6523 25.2554C52.9248 25.1386 53.1584 24.9828 53.392 24.8659C52.4576 24.9828 51.6401 25.0217 51.0951 24.7491Z" fill="#FFCE4B"/>
<path d="M42.9611 38.8089C45.4767 38.8089 47.516 36.7688 47.516 34.2521C47.516 31.7355 45.4767 29.6953 42.9611 29.6953C40.4455 29.6953 38.4062 31.7355 38.4062 34.2521C38.4062 36.7688 40.4455 38.8089 42.9611 38.8089Z" fill="#E6E7E8"/>
<path d="M42.9585 37.2867C44.6355 37.2867 45.995 35.9266 45.995 34.2488C45.995 32.571 44.6355 31.2109 42.9585 31.2109C41.2814 31.2109 39.9219 32.571 39.9219 34.2488C39.9219 35.9266 41.2814 37.2867 42.9585 37.2867Z" fill="#414042"/>
<path d="M64.0594 25.4922C64.3709 32.0742 64.1762 43.3299 59.6214 48.7046C52.9643 56.5329 48.7598 60.5055 46.6965 55.6761C44.6332 50.8077 42.3363 45.0825 35.5234 52.4045C36.5746 51.5087 38.015 50.8467 39.9615 50.8467C46.6965 50.8467 38.8325 67.0486 54.5215 61.0508C54.5215 61.0508 63.9037 54.7803 66.006 43.5636C67.5243 35.2679 66.0449 28.6858 64.0594 25.4922Z" fill="#F8B32B"/>
</svg>

<svg width="81" height="81" fill="none" xmlns="http://www.w3.org/2000/svg"><path fill="#fff" d="M.5.516h80v80H.5z"/><path d="M54.485 61.048s9.382-6.27 11.484-17.487c2.103-11.217-1.323-19.318-4.165-20.097-2.88-.779-8.604 2.337-10.706 1.324-2.102-1.051-3.465-5.57-10.784-5.57-7.319 0-11.912 10.672-14.287 11.646-2.336.974-10.823-3.077-11.562 0-.623 2.687 1.518 20.408 13.002 26.055 2.258 1.13 5.022.195 6.151-2.064.974-1.947 2.842-3.972 6.307-3.972 6.735-.078-1.09 16.163 14.56 10.165z" fill="#F8BE37"/><path d="M51.095 24.75c-2.102-1.052-3.465-5.57-10.784-5.57-7.319 0-11.912 10.671-14.287 11.645-.506.195-1.246.195-2.18.078.973.155 4.633 1.051 8.564 5.297 4.555 4.946 6.93 9.58 13.548 7.75 9.733-2.687-.623-15.267 6.696-18.695.273-.116.506-.272.74-.39-.934.118-1.752.157-2.297-.116z" fill="#FFCE4B"/><path d="M42.961 38.809a4.556 4.556 0 004.555-4.557 4.556 4.556 0 10-4.555 4.557z" fill="#E6E7E8"/><path d="M42.959 37.287a3.037 3.037 0 10-.002-6.075 3.037 3.037 0 00.002 6.075z" fill="#414042"/><path d="M64.06 25.492c.31 6.582.116 17.838-4.439 23.213-6.657 7.828-10.861 11.8-12.925 6.971-2.063-4.868-4.36-10.593-11.173-3.272 1.052-.895 2.492-1.557 4.438-1.557 6.736 0-1.128 16.202 14.56 10.204 0 0 9.383-6.27 11.485-17.487 1.518-8.296.039-14.878-1.947-18.072z" fill="#F8B32B"/></svg>
